X: 23
T: Countess of Hardwicke's Favorite
%R: reel, march
B: "Twenty Four Country Dances with Figures for the Year 1810", Button & Whitaker, p.12 #1
F: http://www.vwml.org/browse/browse-collections-dance-tune-books/browse-button1810
Z: 2014 John Chambers <jc:trillian.mit.edu>
M: 2/4
L: 1/8
K: C
% - - - - - - - - - - - - - - - - - - - - - - - - - - - - -
G |\
cGec | g2ec | AcBd | cedG |\
cGec | g2ec | AcBd | c3 H:|
B/c/ |\
dBGf | e2cg | afdc | B/c/d/B/ GB/c/ |\
dBGf | e2cg | fdec | "_D.C."g3 :|
% - - - - - - - - - - Dance description - - - - - - - - - -
%%begintext align
%%    Foot it, half right & left, back again,
%% down the middle up again, hands 4 round.
%%endtext

%%sep 1 1 500
%%sep 1 1 500
